ow_themes/pneuma/images/ic_newsfeed.svg

<svg xmlns="http://www.w3.org/2000/svg" width="20" height="20" viewBox="0 0 20 20" enable-background="new 0 0 20 20"><path fill="#a2acb3" d="m4 2v16h12v-16h-12m3 13h-2v-2h2v2m0-4h-2v-2h2v2m8 5h-7v-1h7v1m0-2h-7v-1h7v1m0-2h-7v-1h7v1m0-2h-7v-1h7v1m0-2h-10v-4h10v4"/></svg>

<svg xmlns="http://www.w3.org/2000/svg" viewBox="0 0 20 20"><path fill="#a2acb3" d="M4 2v16h12V2H4m3 13H5v-2h2v2m0-4H5V9h2v2m8 5H8v-1h7v1m0-2H8v-1h7v1m0-2H8v-1h7v1m0-2H8V9h7v1m0-2H5V4h10v4"/></svg>
